src/images/icons/icon-sun.svg

<svg width="32" height="32" viewBox="0 0 32 32" fill="none" xmlns="http://www.w3.org/2000/svg">
<path d="M9.32407 16.0001C9.32407 19.6814 12.3187 22.6761 16.0001 22.6761C19.6814 22.6761 22.6761 19.6814 22.6761 16.0001C22.6761 12.3188 19.6814 9.32409 16.0001 9.32409C12.3187 9.32409 9.32407 12.3188 9.32407 16.0001ZM16.0001 11.9908C18.2107 11.9908 20.0094 13.7894 20.0094 16.0001C20.0094 18.2108 18.2107 20.0094 16.0001 20.0094C13.7894 20.0094 11.9907 18.2108 11.9907 16.0001C11.9907 13.7894 13.7894 11.9908 16.0001 11.9908ZM14.6641 25.3334H17.3307V29.3334H14.6641V25.3334ZM14.6641 2.66675H17.3307V6.66675H14.6641V2.66675ZM2.66406 14.6668H6.66407V17.3334H2.66406V14.6668ZM25.3307 14.6668H29.3307V17.3334H25.3307V14.6668ZM5.6254 24.4841L8.45207 21.6548L10.3387 23.5401L7.51207 26.3694L5.6254 24.4841ZM21.6534 8.45875L24.4827 5.62942L26.3681 7.51475L23.5387 10.3441L21.6534 8.45875ZM8.45607 10.3454L5.62673 7.51608L7.5134 5.63075L10.3401 8.46008L8.45607 10.3454ZM26.3681 24.4854L24.4827 26.3708L21.6534 23.5414L23.5387 21.6561L26.3681 24.4854Z" fill="#3E85F3"/>
</svg>

<svg xmlns="http://www.w3.org/2000/svg" width="32" height="32" fill="none"><path fill="#3E85F3" d="M9.324 16A6.683 6.683 0 0 0 16 22.676 6.683 6.683 0 0 0 22.676 16 6.683 6.683 0 0 0 16 9.324 6.683 6.683 0 0 0 9.324 16ZM16 11.99c2.21 0 4.01 1.8 4.01 4.01s-1.8 4.01-4.01 4.01A4.014 4.014 0 0 1 11.99 16c0-2.21 1.8-4.01 4.01-4.01Zm-1.336 13.343h2.667v4h-2.667v-4Zm0-22.666h2.667v4h-2.667v-4Zm-12 12h4v2.666h-4v-2.666Zm22.667 0h4v2.666h-4v-2.666ZM5.625 24.484l2.827-2.83 1.887 1.886-2.827 2.83-1.887-1.886ZM21.653 8.46l2.83-2.83 1.885 1.886-2.83 2.83-1.885-1.886ZM8.456 10.345l-2.83-2.829 1.887-1.885 2.827 2.83-1.884 1.884Zm17.912 14.14-1.885 1.886-2.83-2.83 1.886-1.885 2.83 2.83Z"/></svg>
